X:423
T: Regina wollt' in den Garten gehn (5-19), S. 38
N: P0693
O: Lothringen
S: MERKELBACH-PINCK, Angelika: Verklingende Weisen, Bd 5, Kassel 1962]
R: geistliches, religiöses Lied]
M: 4/4
L: 1/8
K: E
=GF | E=DE2B2A=c | B2A=GF2
FG | A2BA=G2F2 | E6z2
=G2FE2=DE4 | BAA=cB2A=G | F6
F=G | A2BA=G2F2 | E2z4

